X: 1
T: Monymusk
R: reel
M: 4/4
L: 1/8
K: Amaj
|:eABA eAdf|eAcA Bcdf|eABA eAce|fdBd cAAf:|
|:aeee feee|aeee fBBA|1aeee feee|
dfed cAAf:|2~a2ga f/2g/2aec|def=g abaf||


Tune 1387	Setting 29679

